X: 41982
T: Walls Of Limerick, The
R: reel
M: 4/4
K: Bminor
dB|:AFdB ABAF|DFAF E2 EB|AFAd BGBd|cABc dcdB|
AFdB ABAF|DFAF E2 EB|AFAd BGBd|cABc defg:|
|:a2 fd fafd|fafd e2 ef|gfef gbag|fedc defg|
a2 fd fafd|fafd e2 ef|gfef gbag|fedc dcdB:|

